craft2/public/assets/svgicons/branches/barsup-01.svg

<svg xmlns="http://www.w3.org/2000/svg" width="39.788" height="36.711" viewBox="0 0 39.788 36.711"><g stroke="#3B3735" stroke-width="2" stroke-linecap="round" stroke-linejoin="round" stroke-miterlimit="10" fill="none"><path d="M23.995 2.007l-12.793 7.833"/><path d="M20.373 1l4.581.42-1.774 4.164"/><path d="M6.108 35.711h-4.108c-.552 0-1-.448-1-1v-9.776c0-.552.448-1 1-1h4.108c.552 0 1 .448 1 1v9.776c0 .552-.448 1-1 1z"/><path d="M16.427 35.711h-4.108c-.552 0-1-.448-1-1v-16.027c0-.552.448-1 1-1h4.108c.552 0 1 .448 1 1v16.027c0 .552-.447 1-1 1z"/><path d="M27.108 35.711h-4.108c-.552 0-1-.448-1-1v-22.473c0-.552.448-1 1-1h4.108c.552 0 1 .448 1 1v22.473c0 .552-.448 1-1 1z"/><path d="M37.788 35.711h-4.108c-.552 0-1-.448-1-1v-28.322c0-.552.448-1 1-1h4.108c.552 0 1 .448 1 1v28.322c0 .552-.447 1-1 1z"/></g></svg>

<?xml version="1.0" encoding="utf-8"?>
<!-- Generator: Adobe Illustrator 17.0.0, SVG Export Plug-In . SVG Version: 6.00 Build 0)  -->
<!DOCTYPE svg PUBLIC "-//W3C//DTD SVG 1.1//EN" "http://www.w3.org/Graphics/SVG/1.1/DTD/svg11.dtd">
<svg version="1.1" id="Layer_1" xmlns="http://www.w3.org/2000/svg" xmlns:xlink="http://www.w3.org/1999/xlink" x="0px" y="0px"
	 width="39.788px" height="36.711px" viewBox="0 0 39.788 36.711" enable-background="new 0 0 39.788 36.711" xml:space="preserve">
<g>
	<g>
		
			<line fill="none" stroke="#3B3735" stroke-width="2" stroke-linecap="round" stroke-linejoin="round" stroke-miterlimit="10" x1="23.995" y1="2.007" x2="11.202" y2="9.84"/>
		
			<polyline fill="none" stroke="#3B3735" stroke-width="2" stroke-linecap="round" stroke-linejoin="round" stroke-miterlimit="10" points="
			20.373,1 24.954,1.42 23.18,5.584 		"/>
	</g>
	<path fill="none" stroke="#3B3735" stroke-width="2" stroke-linecap="round" stroke-linejoin="round" stroke-miterlimit="10" d="
		M6.108,35.711H2c-0.552,0-1-0.448-1-1v-9.776c0-0.552,0.448-1,1-1h4.108c0.552,0,1,0.448,1,1v9.776
		C7.108,35.263,6.66,35.711,6.108,35.711z"/>
	<path fill="none" stroke="#3B3735" stroke-width="2" stroke-linecap="round" stroke-linejoin="round" stroke-miterlimit="10" d="
		M16.427,35.711h-4.108c-0.552,0-1-0.448-1-1V18.684c0-0.552,0.448-1,1-1h4.108c0.552,0,1,0.448,1,1v16.027
		C17.427,35.263,16.98,35.711,16.427,35.711z"/>
	<path fill="none" stroke="#3B3735" stroke-width="2" stroke-linecap="round" stroke-linejoin="round" stroke-miterlimit="10" d="
		M27.108,35.711H23c-0.552,0-1-0.448-1-1V12.238c0-0.552,0.448-1,1-1h4.108c0.552,0,1,0.448,1,1v22.473
		C28.108,35.263,27.66,35.711,27.108,35.711z"/>
	<path fill="none" stroke="#3B3735" stroke-width="2" stroke-linecap="round" stroke-linejoin="round" stroke-miterlimit="10" d="
		M37.788,35.711h-4.108c-0.552,0-1-0.448-1-1V6.389c0-0.552,0.448-1,1-1h4.108c0.552,0,1,0.448,1,1v28.322
		C38.788,35.263,38.341,35.711,37.788,35.711z"/>
</g>
</svg>
